common/svg/mail-icon.svg

<svg fill="none" height="20" viewBox="0 0 20 20" width="20" xmlns="http://www.w3.org/2000/svg"><path clip-rule="evenodd" d="m16.6667 3.33337h-13.33335c-.62451 0-1.17166.34811-1.45699.85988.09352.02429.18438.06539.26819.12406l7.85545 5.49881 7.8554-5.49881c.0839-.05868.1747-.09978.2683-.12407-.2854-.51176-.8325-.85987-1.457-.85987zm1.6667 2.68383-7.8555 5.4988c-.2869.2009-.66885.2009-.95579 0l-7.85542-5.49877v8.98277c0 .9167.75 1.6667 1.66666 1.6667h13.33335c.9167 0 1.6667-.75 1.6667-1.6667z" fill="#000" fill-rule="evenodd"/></svg>

<svg width="20" height="20" viewBox="0 0 20 20" fill="none" xmlns="http://www.w3.org/2000/svg">
<path fill-rule="evenodd" clip-rule="evenodd" d="M16.6667 3.33337H3.33335C2.70884 3.33337 2.16169 3.68148 1.87636 4.19325C1.96988 4.21754 2.06074 4.25864 2.14455 4.31731L10 9.81612L17.8554 4.31731C17.9393 4.25863 18.0301 4.21753 18.1237 4.19324C17.8383 3.68148 17.2912 3.33337 16.6667 3.33337ZM18.3334 6.0172L10.4779 11.516C10.191 11.7169 9.80905 11.7169 9.52211 11.516L1.66669 6.01723V15C1.66669 15.9167 2.41669 16.6667 3.33335 16.6667H16.6667C17.5834 16.6667 18.3334 15.9167 18.3334 15V6.0172Z" fill="black"/>
</svg>
